X: 12778
T: Faustiñeira
R: jig
M: 6/8
K: Gmajor
gf|:e2(d d)gf|e2(d d)Bc|ded cBG|A2(G G)gf|
ed(a a)gf|e2(d d)Bc|ded cAB|1 ~G3-Ggf:|2 ~G3- GFE||
|:~D3 GAB|A2G GFE|~D3 GB(A|A)BA GFE|~D3 GAB|
B2A ABc|1 ~d3 edA-|ABA GFE:|2 ~d3 ~e3|~f3 agf||

